smart-fest/img/Icons/PaperAeroplane_Dark.svg

<?xml version="1.0" encoding="UTF-8"?>
<svg width="51px" height="44px" viewBox="0 0 51 44" version="1.1" xmlns="http://www.w3.org/2000/svg" xmlns:xlink="http://www.w3.org/1999/xlink">
    <!-- Generator: Sketch 47 (45396) - http://www.bohemiancoding.com/sketch -->
    <title>Icons/PaperAeroplane_Dark</title>
    <desc>Created with Sketch.</desc>
    <defs>
        <linearGradient x1="100%" y1="142.838499%" x2="0%" y2="-89.309127%" id="linearGradient-1">
            <stop stop-color="#751C5F" offset="0%"></stop>
            <stop stop-color="#0A5D79" offset="100%"></stop>
        </linearGradient>
    </defs>
    <g id="Design---Mobile" stroke="none" stroke-width="1" fill="none" fill-rule="evenodd">
        <g id="Contact-Form-Success" transform="translate(-161.000000, -2328.000000)" fill-rule="nonzero" fill="url(#linearGradient-1)">
            <g id="Content">
                <g id="Conact-Success" transform="translate(46.000000, 2136.000000)">
                    <g id="Content" transform="translate(0.000000, 192.000000)">
                        <path d="M116.209053,22.8453814 C114.564134,22.0038298 114.603455,20.7465098 116.291517,20.0393249 L163.535671,0.247194879 C165.226134,-0.460995806 166.224158,0.403495808 165.762073,2.18869955 L155.428634,42.1105883 C154.967779,43.8910423 153.343222,44.5271293 151.7904,43.525078 L140.718387,36.3802017 C139.939268,35.8774291 138.848442,36.0599008 138.292938,36.7736564 L134.667351,41.4320911 C133.540201,42.8803399 132.142098,42.6472001 131.543467,40.9080661 L128.357751,31.6529774 C127.759627,29.9153177 125.953518,27.8307141 124.296362,26.9829021 L116.209053,22.8453814 Z M134.416922,36.1687088 L135.577064,32.7096699 C135.871743,31.8310661 136.605807,30.5915384 137.223158,29.921683 L155.210932,10.4040725 C156.454289,9.05497025 156.255048,8.84436171 154.774325,9.92453982 L131.617709,26.8171514 C130.862656,27.3679578 130.462286,28.5167239 130.700027,29.400084 L132.503063,36.0995058 C132.979603,37.870152 133.836204,37.9001589 134.416922,36.1687088 Z" id="Icons/PaperAeroplane_Dark"></path>
                    </g>
                </g>
            </g>
        </g>
    </g>
</svg>

<svg width="51" height="44" viewBox="0 0 51 44" xmlns="http://www.w3.org/2000/svg"><title>Icons/PaperAeroplane_Dark</title><defs><linearGradient x1="100%" y1="142.838%" x2="0%" y2="-89.309%" id="a"><stop stop-color="#751C5F" offset="0%"/><stop stop-color="#0A5D79" offset="100%"/></linearGradient></defs><path d="M116.21 22.845c-1.646-.841-1.607-2.098.082-2.806L163.536.247c1.69-.708 2.688.156 2.226 1.942L155.43 42.11c-.461 1.78-2.086 2.416-3.639 1.414l-11.072-7.145c-.779-.503-1.87-.32-2.425.394l-3.626 4.658c-1.127 1.448-2.525 1.215-3.124-.524l-3.185-9.255c-.598-1.738-2.404-3.822-4.062-4.67l-8.087-4.138zm18.207 13.324l1.16-3.46c.295-.878 1.029-2.117 1.646-2.787l17.988-19.518c1.243-1.349 1.044-1.56-.437-.48l-23.156 16.893c-.755.551-1.156 1.7-.918 2.583l1.803 6.7c.477 1.77 1.333 1.8 1.914.069z" transform="translate(-115)" fill="url(#a)"/></svg>
